X: 10568
T: Dorset, The
R: reel
M: 4/4
K: Dmajor
|:F/E/|D F A>F|G B G B|D F A>F|G E E F/E/|D F A>F|G B G B|D F A>G|F D D:|
|:d d d/c/B|A A A/G/ F|E E/F/ G A|B A A B/c/|d d d/c/B|A A A/G/ F|E E/F/ G E|D G D:|
|:G B/d/ g/d/B/G/|c e c e|G B/d/ g/d/B/G/|F A F A|G B/d/ g/d/B/G/|c e c e|d f/e/ d/c/B/A/|G4:|
d B d B/d/|e c e c/e/|d B d B|A d d>d|d B d B/d/|e c e c/e/|d f/e/ d/c/B/A/|G4:|

